public/logos/bodas.svg

<?xml version="1.0" encoding="UTF-8" standalone="no"?><!DOCTYPE svg PUBLIC "-//W3C//DTD SVG 1.1//EN" "http://www.w3.org/Graphics/SVG/1.1/DTD/svg11.dtd"><svg width="100%" height="100%" viewBox="0 0 117 20" version="1.1" xmlns="http://www.w3.org/2000/svg" xmlns:xlink="http://www.w3.org/1999/xlink" xml:space="preserve" xmlns:serif="http://www.serif.com/" style="fill-rule:evenodd;clip-rule:evenodd;stroke-linejoin:round;stroke-miterlimit:2;"><g id="gen_logoHeaderPro"><g id="Page-1"><path id="Fill-1" d="M79.99,18.049c-0.659,0 -1.254,-0.544 -1.254,-1.193c-0,-0.649 0.595,-1.193 1.254,-1.193c0.68,-0 1.276,0.544 1.276,1.193c-0,0.649 -0.596,1.193 -1.276,1.193" style="fill:#656a8d;"/><path id="Fill-3" d="M32.865,9.53c-0.805,0 -1.522,0.306 -2.044,0.835l-0,3.336c-0,1.14 0.108,3.358 2.001,3.358c1.761,-0 1.957,-2.727 1.957,-3.866c0,-2.177 -0.543,-3.663 -1.914,-3.663m-0.065,8.526c-3.067,-0 -4.546,-1.567 -4.546,-4.375l-0,-9.441c-0,-0.285 0.218,-0.489 0.5,-0.489l1.566,0c0.283,0 0.501,0.204 0.501,0.489l-0,5.046c0.804,-0.753 1.696,-0.915 2.545,-0.915c2.849,-0 3.958,2.482 3.958,4.802c0,2.706 -1.392,4.883 -4.524,4.883" style="fill:#656a8d;"/><path id="Fill-5" d="M42.952,9.358c-1.802,-0 -2.019,2.681 -2.019,3.818c-0,1.158 0.195,3.88 1.976,3.88c1.78,-0 1.997,-2.722 1.997,-3.88c0,-1.137 -0.195,-3.818 -1.954,-3.818m-0.022,8.693c-3.148,-0 -4.538,-2.133 -4.538,-4.855c0,-2.701 1.39,-4.834 4.538,-4.834c3.127,0 4.517,2.133 4.517,4.834c-0,2.722 -1.39,4.855 -4.517,4.855" style="fill:#656a8d;"/><path id="Fill-7" d="M55.023,10.353c-0.521,-0.589 -1.325,-0.833 -2.085,-0.833c-1.758,-0 -1.867,2.519 -1.867,3.656c0,1.138 0.109,3.677 1.867,3.677c0.76,-0 1.564,-0.508 2.085,-1.097l-0,-5.403Zm3.192,7.698c-1.368,-0 -2.649,-0.366 -2.953,-1.442c-0.825,0.873 -1.87,1.446 -2.934,1.446c-2.736,-0 -3.797,-2.685 -3.797,-4.899c-0,-2.194 1.085,-4.794 3.821,-4.794c0.977,0 1.868,0.183 2.649,0.915l0,-5.058c0,-0.264 0.239,-0.467 0.521,-0.467l1.564,-0c0.282,-0 0.499,0.203 0.499,0.467l-0,11.354c-0,1.198 0.695,1.305 1.585,1.305c0.716,-0 1.563,-0.244 2.236,-0.488c0.348,0.021 0.478,0.422 0.478,0.625c-0,0.101 -0.022,0.203 -0.087,0.285c-0.912,0.466 -2.236,0.751 -3.582,0.751Z" style="fill:#656a8d;"/><path id="Fill-9" d="M66.173,15.744c-0.521,0.589 -1.309,1.117 -2.069,1.117c-1.759,-0 -1.883,-2.559 -1.883,-3.697c-0,-1.137 0.195,-3.818 1.976,-3.818c1.867,-0 1.976,2.193 1.976,3.331l-0,3.067Zm5.771,-4.396c-0.201,3.2 -1.572,5.531 -2.717,5.531c-0.491,0 -0.492,-0.236 -0.492,-1.318l-0,-2.129c0.014,-1.472 -0.021,-4.226 -0.021,-4.226c-0.017,-0.442 0.078,-0.85 -0.43,-0.852l-1.733,-0.006c-0.251,-0.001 -0.372,0.16 -0.414,0.346c-0.001,0.005 -0.006,0.007 -0.009,0.005c-0.547,-0.224 -1.179,-0.356 -1.91,-0.348c-3.148,0.032 -4.537,2.132 -4.537,4.834c-0,2.213 1.085,4.854 3.821,4.854c1.06,-0 2.078,-0.565 2.901,-1.433c0.004,-0.004 0.009,-0.003 0.012,0.003c0.549,1.268 1.409,1.457 2.356,1.455c3.346,-0.005 4.458,-5.326 4.458,-5.326c0,-0 -1.285,-1.398 -1.285,-1.39Z" style="fill:#656a8d;"/><path id="Fill-11" d="M74.317,11.135c0.001,0 0.006,0.002 0.007,0.001c-0.562,-0.457 -0.562,-1.557 -0.5,-2.23c0.027,-0.299 -0.21,-0.556 -0.514,-0.555c-0.392,0.002 -0.896,0.004 -1.242,0.003c-0.253,-0 -0.479,0.164 -0.543,0.405c-0.177,0.668 -0.164,1.481 -0.12,1.776c0.149,1.005 0.689,1.831 1.76,2.538c0.559,0.371 2.592,1.495 2.747,2.54c0.138,0.924 -0.564,1.523 -1.278,1.58c-0.54,0.043 -1.036,-0.444 -1.265,-0.793c-0.103,-0.157 -0.319,-0.197 -0.467,-0.079c-0.016,0.012 -0.031,0.025 -0.047,0.037c-0.179,0.146 -0.239,0.395 -0.134,0.6c0.221,0.435 0.767,1.099 2.041,1.099c1.607,0 3.232,-1.431 2.942,-3.38c-0.204,-1.374 -1.929,-2.528 -3.387,-3.542" style="fill:#656a8d;"/><path id="Fill-13" d="M86.925,18.075c-3.072,-0 -4.401,-2.223 -4.401,-4.935c0,-2.55 1.438,-4.773 4.314,-4.773c0.828,-0 2.855,0.225 2.855,0.877c-0,0.266 -0.241,0.469 -0.524,0.469c-1.155,-0.347 -1.46,-0.408 -1.808,-0.408c-2.07,0 -2.266,2.488 -2.266,3.855c0,2.549 0.588,3.957 2.222,3.957c0.545,-0 1.613,-0.266 2.201,-0.45c0.349,0.021 0.523,0.225 0.523,0.45c0,0.102 -0.044,0.203 -0.109,0.305c-0.719,0.367 -2.048,0.653 -3.007,0.653" style="fill:#656a8d;"/><path id="Fill-15" d="M94.904,9.366c-1.808,0 -2.027,2.693 -2.027,3.835c0,1.163 0.197,3.895 1.984,3.895c1.786,0 2.004,-2.732 2.004,-3.895c-0,-1.142 -0.196,-3.835 -1.961,-3.835m-0.022,8.729c-3.159,-0 -4.553,-2.141 -4.553,-4.874c-0,-2.712 1.394,-4.854 4.553,-4.854c3.138,-0 4.532,2.142 4.532,4.854c0,2.733 -1.394,4.874 -4.532,4.874" style="fill:#656a8d;"/><path id="Fill-19" d="M114.081,11.972l0,3.667c0,1.209 0.679,1.516 1.599,1.516c0.421,-0 0.706,0.936 -0.963,0.936c-2.935,-0 -3.219,-1.305 -3.219,-3.517l-0,-3.298c-0,-1.229 -0.176,-1.7 -0.854,-1.7c-0.548,-0 -1.183,0.471 -1.708,1.105l-0,6.942c-0,0.266 -0.241,0.471 -0.526,0.471l-1.533,0c-0.284,0 -0.525,-0.205 -0.525,-0.471l-0,-6.593c-0,-1.065 -0.329,-1.454 -0.811,-1.454c-0.656,-0 -1.226,0.491 -1.729,1.105l-0,6.942c-0,0.266 -0.241,0.471 -0.526,0.471l-1.554,0c-0.285,0 -0.526,-0.205 -0.526,-0.471l0,-8.759c0,-0.266 0.241,-0.471 0.526,-0.471l1.554,-0c0.285,-0 0.526,0.205 0.526,0.471l-0,0.712c0.635,-0.677 1.401,-1.209 2.584,-1.209c1.051,-0 2.08,0.328 2.386,1.413c0.701,-0.819 1.511,-1.413 2.737,-1.413c2.431,-0 2.562,1.454 2.562,3.605" style="fill:#656a8d;"/><g id="Group-28"><defs><mask id="Mask"><g transform="matrix(1.33333,-0,-0,1.33333,-4.19048e-05,0)"><image id="_Image1" width="117px" height="20px" xlink:href="data:image/png;base64,iVBORw0KGgoAAAANSUhEUgAAAHUAAAAUCAAAAACWxy2fAAAACXBIWXMAAA7EAAAOxAGVKw4bAAAAJ0lEQVRIiWP4jxcoMtAEMNHG2FFbR20dtXXU1lFbR20dtXXUVhoCAKD3Hiq8tqC2AAAAAElFTkSuQmCC"/></g></mask></defs><g mask="url(#Mask)"><path id="Fill-26" d="M20.636,3.617c0,3.951 -4.367,11.558 -6.702,14.519c-0.965,-1.567 -2.862,-3.131 -4.866,-4.784c-3.205,-2.643 -6.519,-5.376 -6.754,-8.585c-0.084,-1.145 0.173,-2.043 0.765,-2.669c0.563,-0.596 1.311,-0.809 1.823,-0.809c1.606,0 3.33,3.112 4.715,5.613c1.162,2.097 1.905,3.382 2.517,3.382c0.27,0 0.596,-0.285 0.596,-0.639c0,-0.883 3.373,-7.95 6.635,-7.95c0.13,0 1.271,0.054 1.271,1.922m-1.888,-3.204c-2.253,0 -5.038,2.163 -6.687,5.171c-1.491,-3.147 -4.561,-5.584 -7.072,-5.584c-3.24,0 -4.989,2.523 -4.989,4.897c0,5.905 7.801,10.697 11.991,13.271c0.878,0.54 1.572,0.966 2.009,1.288l0.06,0.044l0.064,-0.039c5.456,-3.337 8.473,-11.006 8.473,-15.03c-0,-2.516 -1.439,-4.018 -3.849,-4.018" style="fill:#656a8d;"/></g></g></g></g></svg>

<?xml version="1.0" encoding="UTF-8" standalone="no"?>
<!DOCTYPE svg PUBLIC "-//W3C//DTD SVG 1.1//EN" "http://www.w3.org/Graphics/SVG/1.1/DTD/svg11.dtd">
<svg width="100%" height="100%" viewBox="0 0 79 20" version="1.1" xmlns="http://www.w3.org/2000/svg" xmlns:xlink="http://www.w3.org/1999/xlink" xml:space="preserve" xmlns:serif="http://www.serif.com/" style="fill-rule:evenodd;clip-rule:evenodd;stroke-linejoin:round;stroke-miterlimit:2;">
    <g id="Artboard1" transform="matrix(0.672354,0,0,1,0,0)">
        <rect x="0" y="0" width="117" height="20" style="fill:none;"/>
        <g id="gen_logoHeaderPro" transform="matrix(1.487311,0,0,1,0,0)">
            <g id="Page-1" transform="matrix(1,0,0,1,0.463801,0)">
                <path id="Fill-3" d="M32.865,9.53C32.06,9.53 31.343,9.836 30.821,10.365L30.821,13.701C30.821,14.841 30.929,17.059 32.822,17.059C34.583,17.059 34.779,14.332 34.779,13.193C34.779,11.016 34.236,9.53 32.865,9.53M32.8,18.056C29.733,18.056 28.254,16.489 28.254,13.681L28.254,4.24C28.254,3.955 28.472,3.751 28.754,3.751L30.32,3.751C30.603,3.751 30.821,3.955 30.821,4.24L30.821,9.286C31.625,8.533 32.517,8.371 33.366,8.371C36.215,8.371 37.324,10.853 37.324,13.173C37.324,15.879 35.932,18.056 32.8,18.056" style="fill:white;"/>
                <path id="Fill-5" d="M42.952,9.358C41.15,9.358 40.933,12.039 40.933,13.176C40.933,14.334 41.128,17.056 42.909,17.056C44.689,17.056 44.906,14.334 44.906,13.176C44.906,12.039 44.711,9.358 42.952,9.358M42.93,18.051C39.782,18.051 38.392,15.918 38.392,13.196C38.392,10.495 39.782,8.362 42.93,8.362C46.057,8.362 47.447,10.495 47.447,13.196C47.447,15.918 46.057,18.051 42.93,18.051" style="fill:white;"/>
                <path id="Fill-7" d="M55.023,10.353C54.502,9.764 53.698,9.52 52.938,9.52C51.18,9.52 51.071,12.039 51.071,13.176C51.071,14.314 51.18,16.853 52.938,16.853C53.698,16.853 54.502,16.345 55.023,15.756L55.023,10.353ZM58.215,18.051C56.847,18.051 55.566,17.685 55.262,16.609C54.437,17.482 53.392,18.055 52.328,18.055C49.592,18.055 48.531,15.37 48.531,13.156C48.531,10.962 49.616,8.362 52.352,8.362C53.329,8.362 54.22,8.545 55.001,9.277L55.001,4.219C55.001,3.955 55.24,3.752 55.522,3.752L57.086,3.752C57.368,3.752 57.585,3.955 57.585,4.219L57.585,15.573C57.585,16.771 58.28,16.878 59.17,16.878C59.886,16.878 60.733,16.634 61.406,16.39C61.754,16.411 61.884,16.812 61.884,17.015C61.884,17.116 61.862,17.218 61.797,17.3C60.885,17.766 59.561,18.051 58.215,18.051Z" style="fill:white;"/>
                <path id="Fill-9" d="M66.173,15.744C65.652,16.333 64.864,16.861 64.104,16.861C62.345,16.861 62.221,14.302 62.221,13.164C62.221,12.027 62.416,9.346 64.197,9.346C66.064,9.346 66.173,11.539 66.173,12.677L66.173,15.744ZM71.944,11.348C71.743,14.548 70.372,16.879 69.227,16.879C68.736,16.879 68.735,16.643 68.735,15.561L68.735,13.432C68.749,11.96 68.714,9.206 68.714,9.206C68.697,8.764 68.792,8.356 68.284,8.354L66.551,8.348C66.3,8.347 66.179,8.508 66.137,8.694C66.136,8.699 66.131,8.701 66.128,8.699C65.581,8.475 64.949,8.343 64.218,8.351C61.07,8.383 59.681,10.483 59.681,13.185C59.681,15.398 60.766,18.039 63.502,18.039C64.562,18.039 65.58,17.474 66.403,16.606C66.407,16.602 66.412,16.603 66.415,16.609C66.964,17.877 67.824,18.066 68.771,18.064C72.117,18.059 73.229,12.738 73.229,12.738C73.229,12.738 71.944,11.34 71.944,11.348Z" style="fill:white;"/>
                <path id="Fill-11" d="M74.317,11.135C74.318,11.135 74.323,11.137 74.324,11.136C73.762,10.679 73.762,9.579 73.824,8.906C73.851,8.607 73.614,8.35 73.31,8.351C72.918,8.353 72.414,8.355 72.068,8.354C71.815,8.354 71.589,8.518 71.525,8.759C71.348,9.427 71.361,10.24 71.405,10.535C71.554,11.54 72.094,12.366 73.165,13.073C73.724,13.444 75.757,14.568 75.912,15.613C76.05,16.537 75.348,17.136 74.634,17.193C74.094,17.236 73.598,16.749 73.369,16.4C73.266,16.243 73.05,16.203 72.902,16.321C72.886,16.333 72.871,16.346 72.855,16.358C72.676,16.504 72.616,16.753 72.721,16.958C72.942,17.393 73.488,18.057 74.762,18.057C76.369,18.057 77.994,16.626 77.704,14.677C77.5,13.303 75.775,12.149 74.317,11.135" style="fill:white;"/>
                <g id="Group-28">
                    <defs>
                        <mask id="Mask">
                        
                            <g transform="matrix(1,-0,-0,1,-0.463801,0)"><image id="_Image1" width="79px" height="20px" xlink:href="data:image/png;base64,iVBORw0KGgoAAAANSUhEUgAAAE8AAAAUCAAAAADpFj9uAAAACXBIWXMAAA7EAAAOxAGVKw4bAAAAMElEQVQ4jWPMzORlwAI6ZmITJQxY+OX4sYljFSQCMJGpb9S8UfNGzRs1b9Q82poHAK5PAnXq1/vVAAAAAElFTkSuQmCC"/>
                            </g>
                        </mask>
                    </defs>
                    <g mask="url(#Mask)">
                        <path id="Fill-26" d="M20.636,3.617C20.636,7.568 16.269,15.175 13.934,18.136C12.969,16.569 11.072,15.005 9.068,13.352C5.863,10.709 2.549,7.976 2.314,4.767C2.23,3.622 2.487,2.724 3.079,2.098C3.642,1.502 4.39,1.289 4.902,1.289C6.508,1.289 8.232,4.401 9.617,6.902C10.779,8.999 11.522,10.284 12.134,10.284C12.404,10.284 12.73,9.999 12.73,9.645C12.73,8.762 16.103,1.695 19.365,1.695C19.495,1.695 20.636,1.749 20.636,3.617M18.748,0.413C16.495,0.413 13.71,2.576 12.061,5.584C10.57,2.437 7.5,0 4.989,0C1.749,0 0,2.523 0,4.897C0,10.802 7.801,15.594 11.991,18.168C12.869,18.708 13.563,19.134 14,19.456L14.06,19.5L14.124,19.461C19.58,16.124 22.597,8.455 22.597,4.431C22.597,1.915 21.158,0.413 18.748,0.413" style="fill:white;"/>
                    </g>
                </g>
            </g>
        </g>
    </g>
</svg>
